X:3925
T:Dash To Portobello
T:Ryan's
R:Reel
S:
H:
N:
D:Paddy Carty & Conor Tully (Session Tape)
Z:Adrian Scahill
M:4/4
L:1/8
K:D
BEE2 EDB,A,|D2FE DA,A,2|B,EED EFGA|B2eB dBAd|\
BEE2 EDB,A,|DEFE DA,A,2|B,EED EFGA|BdBA FEE2:||\
g2eg bgeg|f2df afdf|g2eg bgeg|fgaf geef|\
g3a bgeg|fddc dfaf|g3a bgaf|1 gfed Beef:|2 gfed Beed||
